X:1
T: Morgiana in England
C:
R:Jig
Q:180
K:D
M:6/8
L:1/16
B2|A2F2A2 d2f2e2|d2c2B2 A4B2|A2F2A2 d2e2f2|g2f2e2 d2c2B2|A2F2A2 d2f2e2|d2c2B2 A4B2|A2F2A2 d2e2f2|g2e2c2 d4B2|
A2F2A2 d2f2e2|d2c2B2 A4B2|A2F2A2 d2e2f2|g2f2e2 d2c2B2|A2F2A2 d2f2e2|d2c2B2 A4B2|A2F2A2 d2e2f2|g2e2c2 d4cd|
e2f2e2 d2c2B2|A4A2 g4g2|f2A2A2 e2A2A2|f2e2d2 e4A2|e2f2e2 d2c2B2|A4A2 g4g2|f2A2A2 e2A2A2|f2d2B2 A2^G2E2|
G2D2E2 F4A2|G2D2E2 F4A2|G4B2 F4A2|E4G2 F2A2F2|G2D2E2 F4A2|G2D2E2 F4A2|B4d2 c4e2|d2A2f2 d4||
